X: 1
T: June Apple
R: reel
Z: 1997 by John Chambers <jc:trillian.mit.edu>
N:
M: C|
L: 1/8
K: AMix
eg \
| "A"a2eg a2eg | a2ed cBAf | "G"g2ef g2ef | gfed cdeg |
| "A"a2eg a2eg | a2ed cBA2 | "G"G2GA BAGB | "A"A6 :|
|: ed \
| "A"c2cB A2AB | c2d2 e4 | "G"G2GA B2Bc | d4- d2ed |
| "A"c2cB A2AB | c2d2 e4 | "G"G2GA BAGB | "A"A6 :|
